lib/brands/logos/git-hub.svg

<svg xmlns="http://www.w3.org/2000/svg" fill="none" aria-hidden="true" viewBox="0 0 197 69"><g id="GitHub"><path id="Vector" fill="#24292E" d="M82.576 51.1326H82.4922C82.5299 51.1326 82.555 51.1745 82.5927 51.1787H82.6179L82.576 51.1368V51.1326ZM82.5927 51.1787C82.203 51.1829 81.2224 51.3882 80.1873 51.3882C76.9187 51.3882 75.7873 49.8796 75.7873 47.9101V34.7894H82.4502C82.8274 34.7894 83.1207 34.4542 83.1207 33.9932V26.8693C83.1207 26.4922 82.7855 26.1569 82.4502 26.1569H75.7873V17.3148C75.7873 16.9796 75.5777 16.7701 75.2006 16.7701H66.149C65.7719 16.7701 65.5623 16.9796 65.5623 17.3148V26.4083C65.5623 26.4083 60.9946 27.5398 60.7013 27.5817C60.366 27.6655 60.1565 27.9588 60.1565 28.2941V33.9932C60.1565 34.4542 60.4918 34.7894 60.8689 34.7894H65.5204V48.5345C65.5204 58.7594 72.6444 59.807 77.5054 59.807C79.7264 59.807 82.4083 59.0946 82.8274 58.8851C83.0788 58.8013 83.2045 58.508 83.2045 58.2146V51.9288C83.2103 51.7505 83.1516 51.5761 83.0393 51.4376C82.9269 51.299 82.7684 51.2056 82.5927 51.1745V51.1787ZM181.892 41.9553C181.892 34.3704 178.833 33.3647 175.606 33.6999C173.092 33.8675 171.08 35.1247 171.08 35.1247V49.8754C171.08 49.8754 173.134 51.3002 176.193 51.384C180.509 51.5097 181.892 49.9592 181.892 41.9553ZM192.075 41.2848C192.075 55.6584 187.424 59.7651 179.294 59.7651C172.421 59.7651 168.734 56.287 168.734 56.287C168.734 56.287 168.566 58.2146 168.357 58.4661C168.231 58.7175 168.021 58.8013 167.77 58.8013H161.568C161.149 58.8013 160.772 58.4661 160.772 58.0889L160.855 11.5319C160.855 11.1547 161.191 10.8195 161.568 10.8195H170.494C170.871 10.8195 171.206 11.1547 171.206 11.5319V27.3303C171.206 27.3303 174.642 25.1093 179.671 25.1093L179.629 25.0255C184.658 25.0255 192.075 26.9112 192.075 41.2848V41.2848ZM155.533 26.1569H146.733C146.272 26.1569 146.021 26.4922 146.021 26.9531V49.7497C146.021 49.7497 143.716 51.384 140.573 51.384C137.43 51.384 136.508 49.9592 136.508 46.8163V26.9112C136.508 26.5341 136.173 26.1988 135.796 26.1988H126.828C126.451 26.1988 126.116 26.5341 126.116 26.9112V48.3249C126.116 57.5441 131.27 59.8489 138.352 59.8489C144.177 59.8489 148.912 56.6222 148.912 56.6222C148.912 56.6222 149.122 58.2565 149.248 58.508C149.331 58.7175 149.625 58.8851 149.918 58.8851H155.533C155.994 58.8851 156.246 58.5499 156.246 58.1727L156.33 26.8693C156.33 26.4922 155.994 26.1569 155.533 26.1569V26.1569ZM56.2174 26.115H47.2915C46.9144 26.115 46.5791 26.4922 46.5791 26.9531V57.7118C46.5791 58.5499 47.1239 58.8432 47.8363 58.8432H55.8822C56.7203 58.8432 56.9298 58.4661 56.9298 57.7118V26.8274C56.9298 26.4502 56.5945 26.115 56.2174 26.115V26.115ZM51.8173 11.9509C48.5906 11.9509 46.0344 14.5072 46.0344 17.7339C46.0344 20.9606 48.5906 23.5169 51.8173 23.5169C54.9602 23.5169 57.5165 20.9606 57.5165 17.7339C57.5165 14.5072 54.9602 11.9509 51.8173 11.9509ZM120.92 10.9033H112.077C111.7 10.9033 111.365 11.2385 111.365 11.6157V28.7551H97.4943V11.6157C97.4943 11.2385 97.1591 10.9033 96.7819 10.9033H87.8561C87.4789 10.9033 87.1437 11.2385 87.1437 11.6157V58.1727C87.1437 58.5499 87.5208 58.8851 87.8561 58.8851H96.7819C97.1591 58.8851 97.4943 58.5499 97.4943 58.1727V38.2676H111.365L111.281 58.1727C111.281 58.5499 111.616 58.8851 111.994 58.8851H120.92C121.297 58.8851 121.632 58.5499 121.632 58.1727V11.6157C121.632 11.2385 121.297 10.9033 120.92 10.9033V10.9033ZM41.8438 31.5208V55.5746C41.8438 55.7422 41.8019 56.0355 41.5924 56.1194C41.5924 56.1194 36.3542 59.8489 27.7216 59.8489C17.2872 59.8489 4.92505 56.5803 4.92505 35.0409C4.92505 13.5014 15.7367 9.05946 26.2969 9.10137C35.4323 9.10137 39.1199 11.1547 39.7066 11.5319C39.8742 11.7414 39.9581 11.909 39.9581 12.1186L38.198 19.5777C38.198 19.9549 37.8209 20.4159 37.3599 20.2901C35.8513 19.8292 33.5884 18.9073 28.2664 18.9073C22.1063 18.9073 15.4852 20.6673 15.4852 34.538C15.4852 48.4087 21.7711 50.0431 26.2969 50.0431C30.1522 50.0431 31.535 49.5821 31.535 49.5821V39.9438H25.3749C24.914 39.9438 24.5787 39.6086 24.5787 39.2314V31.5208C24.5787 31.1437 24.914 30.8084 25.3749 30.8084H41.0476C41.5086 30.8084 41.8438 31.1437 41.8438 31.5208Z"/></g></svg>

<svg xmlns="http://www.w3.org/2000/svg" fill="none" aria-hidden="true" viewBox="0 0 197 69"><path fill="#24292E" d="M82.576 51.133h-.084c.038 0 .063.041.1.046h.026l-.042-.042v-.004Zm.017.046c-.39.004-1.37.21-2.406.21-3.268 0-4.4-1.51-4.4-3.479V34.79h6.663c.377 0 .67-.336.67-.797V26.87c0-.377-.335-.712-.67-.712h-6.663v-8.842c0-.335-.21-.545-.587-.545h-9.05c-.377 0-.587.21-.587.545v9.093s-4.567 1.132-4.86 1.174a.718.718 0 0 0-.545.712v5.7c0 .46.335.795.712.795h4.651v13.745c0 10.225 7.124 11.273 11.985 11.273 2.221 0 4.903-.712 5.322-.922.252-.084.377-.377.377-.67V51.93a.741.741 0 0 0-.611-.755v.005Zm99.299-9.224c0-7.585-3.059-8.59-6.286-8.255-2.514.167-4.526 1.425-4.526 1.425v14.75s2.054 1.425 5.113 1.509c4.316.126 5.699-1.425 5.699-9.429Zm10.183-.67c0 14.373-4.651 18.48-12.781 18.48-6.873 0-10.56-3.478-10.56-3.478s-.168 1.928-.377 2.18c-.126.25-.336.334-.587.334h-6.202c-.419 0-.796-.335-.796-.712l.083-46.557c0-.377.336-.713.713-.713h8.926c.377 0 .712.336.712.713V27.33s3.436-2.22 8.465-2.22l-.042-.084c5.029 0 12.446 1.885 12.446 16.259Zm-36.542-15.128h-8.8c-.461 0-.712.335-.712.796V49.75s-2.305 1.634-5.448 1.634c-3.143 0-4.065-1.425-4.065-4.568V26.911a.734.734 0 0 0-.712-.712h-8.968a.734.734 0 0 0-.712.712v21.414c0 9.22 5.154 11.524 12.236 11.524 5.825 0 10.56-3.227 10.56-3.227s.21 1.635.336 1.886c.083.21.377.377.67.377h5.615c.461 0 .713-.335.713-.712l.084-31.304c0-.377-.336-.712-.797-.712Zm-99.316-.042h-8.925c-.378 0-.713.377-.713.838v30.759c0 .838.545 1.131 1.257 1.131h8.046c.838 0 1.048-.377 1.048-1.131V26.827a.734.734 0 0 0-.713-.712Zm-4.4-14.164a5.741 5.741 0 0 0-5.783 5.783 5.741 5.741 0 0 0 5.783 5.783c3.143 0 5.7-2.556 5.7-5.783 0-3.227-2.557-5.783-5.7-5.783Zm69.102-1.048h-8.842a.734.734 0 0 0-.712.713v17.14h-13.87v-17.14a.734.734 0 0 0-.713-.713h-8.926a.734.734 0 0 0-.712.713v46.557c0 .377.377.712.712.712h8.926a.734.734 0 0 0 .712-.712V38.268h13.871l-.084 19.905c0 .377.335.712.713.712h8.925a.734.734 0 0 0 .713-.712V11.616a.734.734 0 0 0-.713-.713ZM41.844 31.521v24.054c0 .167-.042.46-.252.544 0 0-5.238 3.73-13.87 3.73-10.435 0-22.797-3.269-22.797-24.808 0-21.54 10.812-25.982 21.372-25.94 9.135 0 12.823 2.054 13.41 2.43.167.21.251.378.251.588l-1.76 7.459c0 .377-.377.838-.838.712-1.509-.46-3.772-1.383-9.094-1.383-6.16 0-12.78 1.76-12.78 15.631 0 13.87 6.285 15.505 10.81 15.505 3.856 0 5.239-.46 5.239-.46v-9.64h-6.16c-.461 0-.796-.334-.796-.712v-7.71c0-.377.335-.713.796-.713h15.673c.46 0 .796.336.796.713Z"/></svg>
